public/img/icon-rules-3.svg

<svg width="40" height="36" viewBox="0 0 40 36" fill="none" xmlns="http://www.w3.org/2000/svg">
<g clip-path="url(#clip0_1_9)">
<path fill-rule="evenodd" clip-rule="evenodd" d="M2 0C1.46957 0 0.960859 0.210714 0.585786 0.585786C0.210714 0.960859 0 1.46957 0 2L0 14C0 15.1 0.9 16 2 16H16C16.5304 16 17.0391 15.7893 17.4142 15.4142C17.7893 15.0391 18 14.5304 18 14V2C18 1.46957 17.7893 0.960859 17.4142 0.585786C17.0391 0.210714 16.5304 0 16 0L2 0ZM24 20C23.4696 20 22.9609 20.2107 22.5858 20.5858C22.2107 20.9609 22 21.4696 22 22V34C22 35.1 22.9 36 24 36H38C38.5304 36 39.0391 35.7893 39.4142 35.4142C39.7893 35.0391 40 34.5304 40 34V22C40 21.4696 39.7893 20.9609 39.4142 20.5858C39.0391 20.2107 38.5304 20 38 20H24Z" fill="#EDF5F9"/>
<path fill-rule="evenodd" clip-rule="evenodd" d="M2 1H16C16.2652 1 16.5196 1.10536 16.7071 1.29289C16.8946 1.48043 17 1.73478 17 2V14C17 14.2652 16.8946 14.5196 16.7071 14.7071C16.5196 14.8946 16.2652 15 16 15H2C1.73478 15 1.48043 14.8946 1.29289 14.7071C1.10536 14.5196 1 14.2652 1 14V2C1 1.73478 1.10536 1.48043 1.29289 1.29289C1.48043 1.10536 1.73478 1 2 1ZM0 2C0 0.9 0.9 0 2 0H16C16.5304 0 17.0391 0.210714 17.4142 0.585786C17.7893 0.960859 18 1.46957 18 2V14C18 14.5304 17.7893 15.0391 17.4142 15.4142C17.0391 15.7893 16.5304 16 16 16H2C1.46957 16 0.960859 15.7893 0.585786 15.4142C0.210714 15.0391 0 14.5304 0 14V2ZM24 21H38C38.2652 21 38.5196 21.1054 38.7071 21.2929C38.8946 21.4804 39 21.7348 39 22V34C39 34.2652 38.8946 34.5196 38.7071 34.7071C38.5196 34.8946 38.2652 35 38 35H24C23.7348 35 23.4804 34.8946 23.2929 34.7071C23.1054 34.5196 23 34.2652 23 34V22C23 21.7348 23.1054 21.4804 23.2929 21.2929C23.4804 21.1054 23.7348 21 24 21ZM22 22C22 20.9 22.9 20 24 20H38C38.5304 20 39.0391 20.2107 39.4142 20.5858C39.7893 20.9609 40 21.4696 40 22V34C40 34.5304 39.7893 35.0391 39.4142 35.4142C39.0391 35.7893 38.5304 36 38 36H24C23.4696 36 22.9609 35.7893 22.5858 35.4142C22.2107 35.0391 22 34.5304 22 34V22Z" fill="#0064FF"/>
<path fill-rule="evenodd" clip-rule="evenodd" d="M24 0C23.4696 0 22.9609 0.210714 22.5858 0.585786C22.2107 0.960859 22 1.46957 22 2V14C22 15.1 22.9 16 24 16H38C38.5304 16 39.0391 15.7893 39.4142 15.4142C39.7893 15.0391 40 14.5304 40 14V2C40 1.46957 39.7893 0.960859 39.4142 0.585786C39.0391 0.210714 38.5304 0 38 0L24 0ZM2 20C1.46957 20 0.960859 20.2107 0.585786 20.5858C0.210714 20.9609 0 21.4696 0 22L0 34C0 35.1 0.9 36 2 36H16C16.5304 36 17.0391 35.7893 17.4142 35.4142C17.7893 35.0391 18 34.5304 18 34V22C18 21.4696 17.7893 20.9609 17.4142 20.5858C17.0391 20.2107 16.5304 20 16 20H2Z" fill="#00FF00"/>
<path d="M8.93 9.76C8.86816 9.76178 8.80667 9.75019 8.74972 9.72603C8.69276 9.70187 8.6417 9.6657 8.6 9.62C8.52358 9.51215 8.48491 9.38208 8.49 9.25C8.49 9.02 8.51 8.81 8.57 8.61C8.62 8.41 8.72 8.21 8.84 8C8.97 7.8 9.13 7.57 9.34 7.35L9.7 6.89C9.86302 6.65824 9.95352 6.38328 9.96 6.1C9.96471 5.99121 9.94361 5.88286 9.89842 5.78379C9.85323 5.68472 9.78524 5.59776 9.7 5.53C9.52 5.39 9.27 5.33 8.95 5.33C8.65 5.33 8.39 5.36 8.15 5.44C7.91 5.52 7.67 5.62 7.43 5.76C7.30311 5.84705 7.15381 5.89566 7 5.9C6.887 5.88875 6.7812 5.83938 6.7 5.76C6.61632 5.67941 6.56031 5.57439 6.54 5.46C6.52145 5.33667 6.54245 5.21064 6.6 5.1C6.67095 4.9609 6.77803 4.84346 6.91 4.76C7.21 4.56 7.56 4.41 7.95 4.31C8.34 4.2 8.7 4.14 9.05 4.14C9.51 4.14 9.91 4.22 10.25 4.38C10.61 4.53 10.88 4.74 11.07 5.01C11.27 5.29 11.37 5.61 11.37 5.97C11.3678 6.42095 11.2206 6.85924 10.95 7.22C10.8 7.42 10.6 7.64 10.35 7.87C10.12 8.07 9.94 8.27 9.8 8.44C9.66 8.6 9.57 8.77 9.5 8.92C9.44 9.07 9.4 9.24 9.38 9.42C9.38 9.52 9.33 9.6 9.25 9.67C9.16326 9.74176 9.05232 9.77755 8.94 9.77L8.93 9.76ZM8.91 12.06C8.79895 12.0627 8.6885 12.0429 8.58536 12.0016C8.48222 11.9603 8.38854 11.8986 8.31 11.82C8.15838 11.6615 8.07568 11.4493 8.08 11.23C8.08 11 8.15 10.8 8.3 10.66C8.37937 10.5832 8.47343 10.5233 8.57653 10.4838C8.67963 10.4443 8.78966 10.426 8.9 10.43C9.16 10.43 9.36 10.5 9.5 10.66C9.65 10.8 9.72 11 9.72 11.23C9.72 11.47 9.65 11.67 9.5 11.83C9.36 11.98 9.16 12.05 8.9 12.05L8.91 12.06ZM30.93 29.76C30.8682 29.7618 30.8067 29.7502 30.7497 29.726C30.6928 29.7019 30.6417 29.6657 30.6 29.62C30.5236 29.5122 30.4849 29.3821 30.49 29.25C30.49 29.02 30.51 28.81 30.57 28.61C30.62 28.41 30.72 28.21 30.84 28C30.97 27.8 31.13 27.57 31.34 27.35L31.7 26.89C31.863 26.6582 31.9535 26.3833 31.96 26.1C31.9647 25.9912 31.9436 25.8829 31.8984 25.7838C31.8532 25.6847 31.7852 25.5978 31.7 25.53C31.52 25.39 31.27 25.33 30.95 25.33C30.65 25.33 30.39 25.36 30.15 25.44C29.91 25.52 29.67 25.62 29.43 25.76C29.2992 25.8454 29.1462 25.8906 28.99 25.89C28.877 25.8788 28.7712 25.8294 28.69 25.75C28.6063 25.6694 28.5503 25.5644 28.53 25.45C28.5107 25.3267 28.5318 25.2004 28.59 25.09C28.6609 24.9509 28.768 24.8335 28.9 24.75C29.2 24.55 29.55 24.4 29.94 24.3C30.33 24.19 30.69 24.14 31.04 24.14C31.5 24.14 31.9 24.21 32.24 24.37C32.6 24.52 32.87 24.73 33.06 25C33.26 25.28 33.36 25.6 33.36 25.96C33.3578 26.411 33.2106 26.8492 32.94 27.21C32.79 27.41 32.59 27.63 32.34 27.86C32.11 28.06 31.93 28.26 31.79 28.43C31.65 28.59 31.56 28.75 31.49 28.91C31.43 29.06 31.39 29.23 31.37 29.41C31.37 29.51 31.32 29.59 31.24 29.66C31.1533 29.7318 31.0423 29.7676 30.93 29.76ZM30.91 32.06C30.7989 32.0627 30.6885 32.0429 30.5854 32.0016C30.4822 31.9603 30.3885 31.8986 30.31 31.82C30.1584 31.6615 30.0757 31.4493 30.08 31.23C30.08 31 30.15 30.8 30.3 30.66C30.3794 30.5832 30.4734 30.5233 30.5765 30.4838C30.6796 30.4443 30.7897 30.426 30.9 30.43C31.16 30.43 31.36 30.5 31.5 30.66C31.65 30.8 31.72 31 31.72 31.23C31.72 31.47 31.65 31.67 31.5 31.83C31.36 31.98 31.16 32.06 30.9 32.06H30.91Z" fill="#0064FF"/>
<path fill-rule="evenodd" clip-rule="evenodd" d="M36.7 5.70001C36.8444 5.50744 36.9145 5.26923 36.8975 5.02912C36.8804 4.78901 36.7773 4.56311 36.6071 4.3929C36.4369 4.22269 36.211 4.11959 35.9709 4.10252C35.7308 4.08546 35.4926 4.15558 35.3 4.30001L30 9.58001L27.7 7.28001C27.6096 7.17601 27.4987 7.09183 27.3742 7.03273C27.2497 6.97363 27.1144 6.94089 26.9766 6.93657C26.8389 6.93225 26.7018 6.95644 26.5739 7.00763C26.4459 7.05881 26.3299 7.13588 26.2332 7.23401C26.1365 7.33213 26.061 7.44919 26.0117 7.57784C25.9623 7.70649 25.9401 7.84395 25.9463 7.9816C25.9526 8.11925 25.9873 8.25412 26.0481 8.37775C26.109 8.50137 26.1947 8.61109 26.3 8.70001L29.3 11.7C29.4869 11.8832 29.7382 11.9859 30 11.9859C30.2618 11.9859 30.5131 11.8832 30.7 11.7L36.7 5.70001ZM14.7 25.7C14.8444 25.5074 14.9145 25.2692 14.8975 25.0291C14.8804 24.789 14.7773 24.5631 14.6071 24.3929C14.4369 24.2227 14.211 24.1196 13.9709 24.1025C13.7308 24.0855 13.4926 24.1556 13.3 24.3L8 29.58L5.7 27.28C5.50755 27.1174 5.26083 27.0335 5.00918 27.045C4.75752 27.0564 4.51946 27.1625 4.34259 27.3419C4.16573 27.5213 4.06308 27.7608 4.05519 28.0126C4.04729 28.2644 4.13472 28.5099 4.3 28.7L7.3 31.7C7.48693 31.8832 7.73825 31.9859 8 31.9859C8.26175 31.9859 8.51307 31.8832 8.7 31.7L14.7 25.7Z" fill="white"/>
</g>
<defs>
<clipPath id="clip0_1_9">
<rect width="40" height="36" fill="white"/>
</clipPath>
</defs>
</svg>

<svg width="40" height="36" fill="none" xmlns="http://www.w3.org/2000/svg"><path fill-rule="evenodd" clip-rule="evenodd" d="M2 0a2 2 0 0 0-2 2v12c0 1.1.9 2 2 2h14a2 2 0 0 0 2-2V2a2 2 0 0 0-2-2H2Zm22 20a2 2 0 0 0-2 2v12c0 1.1.9 2 2 2h14a2 2 0 0 0 2-2V22a2 2 0 0 0-2-2H24Z" fill="#EDF5F9"/><path fill-rule="evenodd" clip-rule="evenodd" d="M2 1h14a1 1 0 0 1 1 1v12a1 1 0 0 1-1 1H2a1 1 0 0 1-1-1V2a1 1 0 0 1 1-1ZM0 2C0 .9.9 0 2 0h14a2 2 0 0 1 2 2v12a2 2 0 0 1-2 2H2a2 2 0 0 1-2-2V2Zm24 19h14a1 1 0 0 1 1 1v12a1 1 0 0 1-1 1H24a1 1 0 0 1-1-1V22a1 1 0 0 1 1-1Zm-2 1c0-1.1.9-2 2-2h14a2 2 0 0 1 2 2v12a2 2 0 0 1-2 2H24a2 2 0 0 1-2-2V22Z" fill="#BAD6EB"/><path fill-rule="evenodd" clip-rule="evenodd" d="M24 0a2 2 0 0 0-2 2v12c0 1.1.9 2 2 2h14a2 2 0 0 0 2-2V2a2 2 0 0 0-2-2H24ZM2 20a2 2 0 0 0-2 2v12c0 1.1.9 2 2 2h14a2 2 0 0 0 2-2V22a2 2 0 0 0-2-2H2Z" fill="#00CA51"/><path d="M8.93 9.76a.43.43 0 0 1-.33-.14.6.6 0 0 1-.11-.37c0-.23.02-.44.08-.64.05-.2.15-.4.27-.61.13-.2.29-.43.5-.65l.36-.46a1.43 1.43 0 0 0 .26-.79.69.69 0 0 0-.26-.57c-.18-.14-.43-.2-.75-.2-.3 0-.56.03-.8.11s-.48.18-.72.32A.8.8 0 0 1 7 5.9a.5.5 0 0 1-.3-.14.55.55 0 0 1-.16-.3.59.59 0 0 1 .06-.36.87.87 0 0 1 .31-.34c.3-.2.65-.35 1.04-.45.39-.11.75-.17 1.1-.17.46 0 .86.08 1.2.24.36.15.63.36.82.63.2.28.3.6.3.96a2.1 2.1 0 0 1-.42 1.25c-.15.2-.35.42-.6.65-.23.2-.41.4-.55.57-.14.16-.23.33-.3.48-.06.15-.1.32-.12.5 0 .1-.05.18-.13.25a.44.44 0 0 1-.31.1Zm-.02 2.3a.82.82 0 0 1-.6-.24.83.83 0 0 1-.23-.59c0-.23.07-.43.22-.57a.82.82 0 0 1 .6-.23c.26 0 .46.07.6.23.15.14.22.34.22.57 0 .24-.07.44-.22.6-.14.15-.34.22-.6.22ZM30.93 29.76a.43.43 0 0 1-.33-.14.6.6 0 0 1-.11-.37c0-.23.02-.44.08-.64.05-.2.15-.4.27-.61.13-.2.29-.43.5-.65l.36-.46a1.43 1.43 0 0 0 .26-.79.69.69 0 0 0-.26-.57c-.18-.14-.43-.2-.75-.2-.3 0-.56.03-.8.11s-.48.18-.72.32a.8.8 0 0 1-.44.13.5.5 0 0 1-.3-.14.55.55 0 0 1-.16-.3.58.58 0 0 1 .06-.36.87.87 0 0 1 .31-.34c.3-.2.65-.35 1.04-.45.39-.11.75-.16 1.1-.16.46 0 .86.07 1.2.23.36.15.63.36.82.63.2.28.3.6.3.96a2.1 2.1 0 0 1-.42 1.25c-.15.2-.35.42-.6.65-.23.2-.41.4-.55.57-.14.16-.23.32-.3.48-.06.15-.1.32-.12.5 0 .1-.05.18-.13.25a.44.44 0 0 1-.31.1Zm-.02 2.3a.82.82 0 0 1-.6-.24.83.83 0 0 1-.23-.59c0-.23.07-.43.22-.57a.82.82 0 0 1 .6-.23c.26 0 .46.07.6.23.15.14.22.34.22.57 0 .24-.07.44-.22.6-.14.15-.34.23-.6.23Z" fill="#8CAEC8"/><path fill-rule="evenodd" clip-rule="evenodd" d="M36.7 5.7a1 1 0 0 0-1.4-1.4L30 9.58l-2.3-2.3a1 1 0 1 0-1.4 1.42l3 3a1 1 0 0 0 1.4 0l6-6Zm-22 20a1 1 0 0 0-1.4-1.4L8 29.58l-2.3-2.3a1 1 0 0 0-1.4 1.42l3 3a1 1 0 0 0 1.4 0l6-6Z" fill="#fff"/></svg>
